src/images/gift-top.svg

<?xml version="1.0" encoding="UTF-8"?>
<svg width="143px" height="97px" viewBox="0 0 143 97" version="1.1" xmlns="http://www.w3.org/2000/svg" xmlns:xlink="http://www.w3.org/1999/xlink">
    <!-- Generator: Sketch 52.3 (67297) - http://www.bohemiancoding.com/sketch -->
    <title>gift-top</title>
    <desc>Created with Sketch.</desc>
    <g id="gift-top" stroke="none" stroke-width="1" fill="none" fill-rule="evenodd">
        <path d="M123.705533,31.3230391 C122.077951,24.6925703 117.193926,19.5038281 110.58656,17.3894453 C104.074953,15.3711563 97.0842321,16.8128828 92.0093281,21.4250625 L80.9009732,31.2269453 L78.6988371,16.5249219 C77.6454888,9.79835938 73.3363371,4.12850781 66.920808,1.43820313 C65.675942,0.957414063 64.4310759,0.573039063 63.1862098,0.380851563 C57.9194688,-0.676179687 52.4612098,0.476945313 48.0559799,3.74445313 C42.2146853,7.97257813 39.2464777,15.0835156 40.2037478,22.1941328 C41.2574152,29.3050703 46.0453616,35.3589766 52.8439263,37.7613203 L63.1862098,41.5089766 L75.9221473,46.2175703 C76.0179063,46.2175703 76.0179063,46.2175703 76.0179063,46.2175703 L98.1382188,54.3852188 C100.340355,55.1542891 102.638569,55.5389844 104.841025,55.5389844 C109.53385,55.5389844 114.12996,53.8086563 117.768799,50.5417891 C123.13098,45.7371016 125.429194,38.3375625 123.705533,31.3230391" id="Fill-4" fill="#E9823D"></path>
        <path d="M117.76848,50.5417891 C114.129641,53.8086562 109.533212,55.5389844 104.840705,55.5389844 C102.638569,55.5389844 100.340355,55.1542891 98.1378996,54.3852187 L76.0175871,46.2175703 C76.0175871,46.2175703 76.0175871,46.2175703 75.9218281,46.2175703 L63.1858906,41.5089766 L63.1858906,0.38053125 C64.4307567,0.573039062 65.6756228,0.95709375 66.9204888,1.43788281 C73.3360179,4.1281875 77.6454888,9.79803906 78.6985179,16.5246016 L80.900654,31.226625 L92.0090089,21.4247422 C97.0839129,16.8125625 104.074634,15.3708359 110.586241,17.389125 C117.193607,19.5035078 122.077312,24.69225 123.705214,31.3227187 C125.429194,38.3375625 123.13098,45.7371016 117.76848,50.5417891" id="Fill-5" fill="#E5723B"></path>
        <path d="M141.803971,74.9848359 L135.292364,93.0504609 C134.525973,94.9723359 132.706554,96.1254609 130.791375,96.1254609 C130.216821,96.1254609 129.642268,96.0293672 129.163792,95.8375 L79.6561071,77.771875 L75.1557567,62.8773437 L63.1858906,65.5676484 L52.6527277,67.9699922 L3.14504241,49.9043672 C0.655310268,48.94375 -0.589236607,46.1567109 0.272274554,43.7543672 L6.87964062,25.6893828 C8.1245067,22.0378203 10.8060759,19.1543672 14.2533973,17.5210937 C17.7007187,15.8878203 21.6265156,15.6953125 25.2653549,17.040625 L63.1862098,30.878125 L65.7720201,31.8387422 C65.7720201,31.8387422 76.1136652,50.6734375 76.4012612,50.6734375 C76.5930982,50.6734375 80.7104129,48.3671875 84.7322879,46.1567109 C88.7532054,43.9465547 92.7753996,41.640625 92.7753996,41.640625 L133.185348,56.4387422 C136.824187,57.7840547 139.696955,60.475 141.324538,63.934375 C142.953078,67.3934297 143.144277,71.3335937 141.803971,74.9848359" id="Fill-6" fill="#D42E52"></path>
        <path d="M141.803971,74.9848359 L135.292364,93.0504609 C134.525973,94.9723359 132.706554,96.1254609 130.791375,96.1254609 C130.216821,96.1254609 129.642268,96.0293672 129.163792,95.8375 L79.6561071,77.771875 L75.1557567,62.8773437 L63.1858906,65.5676484 L63.1858906,30.878125 L65.7717009,31.8387422 C65.7717009,31.8387422 76.113346,50.6734375 76.400942,50.6734375 C76.592779,50.6734375 80.7100938,48.3671875 84.7319688,46.1567109 C88.7532054,43.9465547 92.7753996,41.640625 92.7753996,41.640625 L133.185348,56.4387422 C136.824187,57.7840547 139.696955,60.475 141.324538,63.934375 C142.953078,67.3934297 143.144277,71.3335938 141.803971,74.9848359" id="Fill-7" fill="#C42456"></path>
        <polyline id="Fill-10" fill="#F0AA3D" points="65.7713817 31.8387422 63.1855714 38.9496797 52.6524085 67.9703125 63.1855714 71.8143828 75.1554375 76.1386016 79.6557879 77.771875 92.7753996 41.640625 65.7713817 31.8387422"></polyline>
        <polyline id="Fill-12" fill="#E9823D" points="92.7753996 41.640625 79.6561071 77.771875 75.1557567 76.1382812 63.1858906 71.8140625 63.1858906 38.9496797 65.7713817 31.8387422 92.7753996 41.640625"></polyline>
    </g>
</svg>

<svg width="143" height="97" xmlns="http://www.w3.org/2000/svg"><g fill="none" fill-rule="evenodd"><path d="M123.706 31.323c-1.628-6.63-6.512-11.82-13.12-13.934-6.511-2.018-13.502-.576-18.577 4.036l-11.108 9.802-2.202-14.702C77.645 9.798 73.336 4.129 66.92 1.438 65.676.958 64.43.573 63.186.381 57.92-.676 52.461.477 48.056 3.744c-5.841 4.229-8.81 11.34-7.852 18.45 1.053 7.111 5.841 13.165 12.64 15.567l10.342 3.748 12.736 4.709h.096l22.12 8.167c2.202.77 4.5 1.154 6.703 1.154 4.693 0 9.289-1.73 12.928-4.997a19.562 19.562 0 0 0 5.937-19.219" fill="#E9823D"/><path d="M117.768 50.542c-3.638 3.267-8.235 4.997-12.927 4.997-2.202 0-4.5-.385-6.703-1.154l-22.12-8.167h-.096l-12.736-4.709V.381c1.245.192 2.49.576 3.734 1.057 6.416 2.69 10.725 8.36 11.779 15.087L80.9 31.227l11.108-9.802c5.075-4.612 12.066-6.054 18.577-4.036 6.608 2.115 11.491 7.303 13.12 13.934a19.561 19.561 0 0 1-5.938 19.219" fill="#E5723B"/><path d="M141.804 74.985l-6.512 18.065a4.85 4.85 0 0 1-4.5 3.075c-.575 0-1.15-.096-1.628-.287L79.656 77.772l-4.5-14.895-11.97 2.69-10.533 2.403L3.145 49.904c-2.49-.96-3.734-3.747-2.873-6.15L6.88 25.69c1.245-3.651 3.926-6.535 7.373-8.168a14.13 14.13 0 0 1 11.012-.48l37.921 13.837 2.586.96s10.342 18.835 10.63 18.835c.191 0 4.308-2.306 8.33-4.516 4.021-2.21 8.043-4.516 8.043-4.516l40.41 14.798c3.64 1.345 6.512 4.036 8.14 7.495 1.628 3.46 1.82 7.4.479 11.05" fill="#D42E52"/><path d="M141.804 74.985l-6.512 18.065a4.85 4.85 0 0 1-4.5 3.075c-.575 0-1.15-.096-1.628-.287L79.656 77.772l-4.5-14.895-11.97 2.69V30.879l2.586.96S76.113 50.674 76.4 50.674c.192 0 4.31-2.306 8.331-4.516s8.043-4.516 8.043-4.516l40.41 14.798c3.64 1.345 6.512 4.036 8.14 7.495 1.628 3.46 1.82 7.4.479 11.05" fill="#C42456"/><path fill="#F0AA3D" d="M65.771 31.839l-2.585 7.11L52.652 67.97l10.534 3.844 11.97 4.325 4.5 1.633 13.12-36.131-27.005-9.802"/><path fill="#E9823D" d="M92.775 41.64L79.656 77.773l-4.5-1.634-11.97-4.324V38.95l2.585-7.111 27.004 9.802"/></g></svg>
